packages/core/src/svgs/zen.svg

<svg width="24" height="24" viewBox="0 0 24 24" fill="none" xmlns="http://www.w3.org/2000/svg">
<g clip-path="url(#clip0_31_21194)">
<path d="M0 0H24V24H0V0Z" fill="#041742"/>
<path d="M17.5795 8.00331L16.458 9.74117C16.8116 10.442 16.9951 11.2163 16.9939 12.0014C16.9926 12.7864 16.8065 13.5601 16.4507 14.2598C16.0949 14.9595 15.5793 15.5657 14.9457 16.0291C14.312 16.4926 13.5782 16.8003 12.8035 16.9275C11.7668 17.0972 10.7061 16.9275 9.76625 16.456L8.02368 17.5767C9.00927 18.2826 10.1646 18.714 11.3716 18.827C12.5786 18.94 13.7939 18.7305 14.8934 18.2199C15.9929 17.7092 16.9371 16.9158 17.6294 15.9207C18.3217 14.9256 18.7374 13.7644 18.834 12.556C18.9672 10.9365 18.5228 9.32219 17.5795 7.99902H17.5838L17.5795 8.00331Z" fill="url(#paint0_radial_31_21194)"/>
<path d="M12.009 15.4352C12.8149 15.4359 13.5955 15.1537 14.2147 14.6378C14.8339 14.1219 15.2524 13.4051 15.3972 12.6122C14.3235 12.3794 13.2129 12.3747 12.1372 12.5984C11.0615 12.8221 10.0449 13.2692 9.15295 13.9108C9.46785 14.3793 9.89294 14.7633 10.3909 15.0291C10.8889 15.2949 11.4445 15.4343 12.009 15.4352Z" fill="url(#paint1_radial_31_21194)"/>
<path d="M13.7075 11.8099C14.2963 11.8099 14.8775 11.8747 15.4539 11.9998C15.4538 11.2985 15.2397 10.6138 14.8403 10.0373C14.4409 9.46081 13.8752 9.01982 13.2186 8.77323C12.562 8.52663 11.8459 8.48616 11.1657 8.6572C10.4855 8.82825 9.87371 9.20268 9.4119 9.73052C9.08845 10.1013 8.84831 10.5371 8.70769 11.0085C8.56707 11.48 8.52924 11.9762 8.59676 12.4635C8.12072 12.8134 7.68747 13.218 7.3059 13.6691C7.06085 12.9681 6.97505 12.2213 7.05475 11.4829C7.13444 10.7446 7.37762 10.0333 7.76662 9.40069C8.15562 8.7681 8.68067 8.23012 9.30361 7.82585C9.92654 7.42157 10.6317 7.16116 11.3679 7.06352C12.3519 6.93495 13.3522 7.10381 14.2398 7.54781L15.9742 6.42238C14.9833 5.71321 13.821 5.28138 12.6075 5.17147C11.3939 5.06155 10.173 5.27754 9.07078 5.79712C7.96858 6.31671 7.02503 7.12106 6.33755 8.12715C5.65007 9.13323 5.24358 10.3046 5.16004 11.5202C5.04473 13.1501 5.51544 14.7676 6.48733 16.0811C6.81042 15.4968 7.20314 14.9539 7.6569 14.4641C8.03019 14.0777 8.43486 13.7229 8.86676 13.4034C10.271 12.3705 11.9681 11.8126 13.7113 11.8108H13.707L13.7075 11.8099Z" fill="white"/>
</g>
<defs>
<radialGradient id="paint0_radial_31_21194" cx="0" cy="0" r="1" gradientUnits="userSpaceOnUse" gradientTransform="translate(17.5834 7.99517) scale(11.5334 11.5483)">
<stop offset="0.1" stop-color="#26DB8D"/>
<stop offset="0.26" stop-color="#23D29A"/>
<stop offset="0.56" stop-color="#1ABBBB"/>
<stop offset="0.89" stop-color="#0E9DE5"/>
</radialGradient>
<radialGradient id="paint1_radial_31_21194" cx="0" cy="0" r="1" gradientUnits="userSpaceOnUse" gradientTransform="translate(17.5834 7.9948) scale(11.5334 11.5483)">
<stop offset="0.26" stop-color="#23D29A"/>
<stop offset="0.56" stop-color="#1ABBBB"/>
<stop offset="0.89" stop-color="#0E9DE5"/>
</radialGradient>
<clipPath id="clip0_31_21194">
<rect width="24" height="24" fill="white"/>
</clipPath>
</defs>
</svg>

<svg xmlns="http://www.w3.org/2000/svg" width="24" height="24" fill="none" viewBox="0 0 24 24"><g clip-path="url(#a)"><path fill="#041742" d="M0 0h24v24H0z"/><path fill="url(#b)" d="m17.58 8.003-1.122 1.738a5 5 0 0 1-3.654 7.186c-1.037.17-2.098 0-3.038-.471l-1.742 1.12a6.845 6.845 0 0 0 10.81-5.02 6.88 6.88 0 0 0-1.255-4.557h.005z"/><path fill="url(#c)" d="M12.009 15.435a3.44 3.44 0 0 0 3.388-2.823 7.85 7.85 0 0 0-6.244 1.299 3.45 3.45 0 0 0 2.856 1.524"/><path fill="#fff" d="M13.708 11.81q.882.001 1.746.19a3.447 3.447 0 0 0-6.746-.992 3.4 3.4 0 0 0-.111 1.456c-.476.35-.91.754-1.291 1.205a5 5 0 0 1 4.062-6.605 5 5 0 0 1 2.872.484l1.734-1.126A6.846 6.846 0 0 0 5.16 11.52a6.86 6.86 0 0 0 1.327 4.561 8.3 8.3 0 0 1 1.17-1.617 10 10 0 0 1 1.21-1.06 8.2 8.2 0 0 1 4.844-1.593z"/></g><defs><radialGradient id="b" cx="0" cy="0" r="1" gradientTransform="matrix(11.5334 0 0 11.5483 17.583 7.995)" gradientUnits="userSpaceOnUse"><stop offset=".1" stop-color="#26DB8D"/><stop offset=".26" stop-color="#23D29A"/><stop offset=".56" stop-color="#1ABBBB"/><stop offset=".89" stop-color="#0E9DE5"/></radialGradient><radialGradient id="c" cx="0" cy="0" r="1" gradientTransform="matrix(11.5334 0 0 11.5483 17.583 7.995)" gradientUnits="userSpaceOnUse"><stop offset=".26" stop-color="#23D29A"/><stop offset=".56" stop-color="#1ABBBB"/><stop offset=".89" stop-color="#0E9DE5"/></radialGradient><clipPath id="a"><path fill="#fff" d="M0 0h24v24H0z"/></clipPath></defs></svg>
